icons/Document/file-cloud-fill.svg

<svg viewBox="0 0 24 24" xmlns="http://www.w3.org/2000/svg"><path d="M14.9968 2L21 8L21.0012 12.2606C20.0501 11.4722 18.8302 11 17.5 11L17.2788 11.0044C14.784 11.103 12.7164 12.8635 12.1523 15.2093L12.136 15.283L12.1068 15.3024C10.8223 16.1634 10 17.6255 10 19.25C10 20.273 10.3242 21.2231 10.8771 22.0006L3.9934 22C3.48412 22 3.06409 21.6171 3.00669 21.1239L3 21.0082V2.9918C3 2.49363 3.38689 2.06546 3.88533 2.00683L4.00221 2H14.9968ZM17.5 13C19.433 13 21 14.567 21 16.5L20.9985 16.6033C22.1531 16.9285 23 17.9903 23 19.25C23 20.7125 21.8583 21.9084 20.4175 21.995L20.25 22H14.75L14.5825 21.995C13.1417 21.9084 12 20.7125 12 19.25C12 17.99 12.8474 16.9279 14.0034 16.6025L14 16.5C14 14.567 15.567 13 17.5 13Z"/></svg>

<svg xmlns="http://www.w3.org/2000/svg" viewBox="0 0 24 24">
    <g>
        <path fill="none" d="M0 0h24v24H0z"/>
        <path d="M14.997 2L21 8l.001 4.26A5.466 5.466 0 0 0 17.5 11l-.221.004a5.503 5.503 0 0 0-5.127 4.205l-.016.074-.03.02A4.75 4.75 0 0 0 10.878 22L3.993 22a.993.993 0 0 1-.986-.876L3 21.008V2.992c0-.498.387-.927.885-.985L4.002 2h10.995zM17.5 13a3.5 3.5 0 0 1 3.5 3.5l-.001.103a2.75 2.75 0 0 1-.581 5.392L20.25 22h-5.5l-.168-.005a2.75 2.75 0 0 1-.579-5.392L14 16.5a3.5 3.5 0 0 1 3.5-3.5z"/>
    </g>
</svg>
